assets/img/brick_tile_fan.svg

<?xml version="1.0" encoding="UTF-8" standalone="no"?>
<!-- Created with Inkscape (http://www.inkscape.org/) -->

<svg
   width="142"
   height="110"
   viewBox="0 0 142 110"
   version="1.1"
   id="svg1"
   inkscape:version="1.3.1 (91b66b0783, 2023-11-16)"
   xml:space="preserve"
   sodipodi:docname="brick_tile_fan.svg"
   xmlns:inkscape="http://www.inkscape.org/namespaces/inkscape"
   xmlns:sodipodi="http://sodipodi.sourceforge.net/DTD/sodipodi-0.dtd"
   xmlns="http://www.w3.org/2000/svg"
   xmlns:svg="http://www.w3.org/2000/svg"><sodipodi:namedview
     id="namedview1"
     pagecolor="#ffffff"
     bordercolor="#000000"
     borderopacity="0.25"
     inkscape:showpageshadow="2"
     inkscape:pageopacity="0.0"
     inkscape:pagecheckerboard="0"
     inkscape:deskcolor="#d1d1d1"
     inkscape:document-units="px"
     showgrid="false"
     inkscape:zoom="8"
     inkscape:cx="46.0625"
     inkscape:cy="53.0625"
     inkscape:window-width="1920"
     inkscape:window-height="1017"
     inkscape:window-x="1912"
     inkscape:window-y="-8"
     inkscape:window-maximized="1"
     inkscape:current-layer="svg1"><inkscape:grid
       id="grid1"
       units="px"
       originx="0"
       originy="0"
       spacingx="1"
       spacingy="1"
       empcolor="#0099e5"
       empopacity="0.30196078"
       color="#0099e5"
       opacity="0.14901961"
       empspacing="5"
       dotted="false"
       gridanglex="30"
       gridanglez="30"
       visible="false" /></sodipodi:namedview><defs
     id="defs1" /><g
     inkscape:label="frame 2"
     inkscape:groupmode="layer"
     id="layer1-5-7"
     style="display:inline;paint-order:normal"
     transform="translate(0,55)"><path
       style="display:inline;fill:#707070;fill-opacity:1;stroke:none;stroke-width:2;stroke-linejoin:round;paint-order:normal"
       d="M 24,3 2,25 v 10 l 20,20 h 78 L 142,13 V 3 Z"
       id="path2-8"
       inkscape:label="body" /><path
       style="display:inline;fill:#666666;fill-opacity:1;stroke:none;stroke-width:2;stroke-linejoin:miter;stroke-opacity:0;paint-order:normal"
       d="M 4,24 120,24.063728 140,4 H 24 Z"
       id="path5-9"
       inkscape:label="inside" /><g
       inkscape:groupmode="layer"
       id="layer1-51"
       inkscape:label="fan"
       style="display:inline;paint-order:normal"><ellipse
         style="display:inline;fill:#efefef;fill-opacity:1;stroke:none;stroke-width:2.18092;stroke-linecap:round;stroke-opacity:0;paint-order:normal"
         id="path18-5"
         cx="69"
         cy="17"
         rx="45"
         ry="12" /><path
         id="path18-5-5"
         style="display:inline;fill:#e1e1e1;fill-opacity:1;stroke:none;stroke-width:2.18092;stroke-linecap:round;stroke-opacity:0;paint-order:normal"
         d="M 42.730469 7.2714844 A 45 12 0 0 0 24.619141 15.130859 L 73.484375 28.927734 L 73.486328 28.927734 A 45 12 0 0 0 73.535156 28.925781 L 77.689453 28.751953 L 42.730469 7.2714844 z " /><path
         id="path18-5-3"
         style="display:inline;paint-order:normal;fill:#b4b4b4;fill-opacity:1;stroke:none;stroke-width:2.18092;stroke-linecap:round;stroke-opacity:0"
         d="M 40.285156 7.7832031 A 45 12 0 0 0 25.710938 13.783203 L 74 28 L 40.285156 7.7832031 z " /><path
         id="path18-5-6"
         style="display:inline;fill:#ffffff;fill-opacity:1;stroke:none;stroke-width:2.18092;stroke-linecap:round;stroke-opacity:0;paint-order:normal"
         d="M 95.091797 7.2265625 L 68 25 L 113.8418 16.001953 A 45 12 0 0 0 95.091797 7.2265625 z " /></g><path
       id="path1-3"
       style="display:inline;fill:#c9c9c9;fill-opacity:1;stroke:none;stroke-width:2;stroke-linejoin:round;paint-order:normal"
       inkscape:label="grate"
       d="M 24,3 2,25 H 120 L 142,3 Z m 7,2 h 6 L 19,23 h -6 z m 12,0 h 6 L 31,23 h -6 z m 12,0 h 6 L 43,23 h -6 z m 12,0 h 6 L 55,23 h -6 z m 12,0 h 6 L 67,23 h -6 z m 12,0 h 6 L 79,23 h -6 z m 12,0 h 6 L 91,23 h -6 z m 12,0 h 6 l -18,18 h -6 z m 12,0 h 6 l -18,18 h -6 z" /><path
       style="display:inline;fill:#a0a0a4;fill-opacity:1;stroke:none;stroke-width:2;stroke-linejoin:round;paint-order:normal"
       d="M 2,32.1716 22.8284,53 H 99.1716 L 120,32.1716 V 25 H 2"
       id="path3-3"
       sodipodi:nodetypes="cccccc"
       inkscape:label="front" /><path
       style="display:inline;fill:#3366cc;fill-opacity:1;stroke:#000000;stroke-width:2;stroke-linejoin:miter;stroke-opacity:0;paint-order:normal"
       d="m 11,30 -2,2 16,16 h 72 l 16,-16 -2,-2 z"
       id="path4-2"
       sodipodi:nodetypes="ccccccc"
       inkscape:label="panel_screen" /><g
       inkscape:groupmode="layer"
       id="layer2-3"
       inkscape:label="wires"
       style="display:inline;stroke:#0000ff;stroke-opacity:1;paint-order:normal"><path
         style="display:inline;fill:#000000;fill-opacity:0;stroke:#0000ff;stroke-width:2;stroke-linecap:square;stroke-opacity:1;paint-order:normal"
         d="m 21,32 v 6 h 7"
         id="path6-7"
         sodipodi:nodetypes="ccc"
         inkscape:label="wire1" /><path
         style="fill:#000000;fill-opacity:0;stroke:#0000ff;stroke-width:2;stroke-linecap:square;stroke-opacity:1;paint-order:normal"
         d="m 31,32 v 3"
         id="path7-3"
         sodipodi:nodetypes="cc"
         inkscape:label="wire2" /><path
         style="fill:#000000;fill-opacity:0;stroke:#0000ff;stroke-width:2;stroke-linecap:square;stroke-opacity:1;paint-order:normal"
         d="m 34,38 h 9"
         id="path8-9"
         sodipodi:nodetypes="cc"
         inkscape:label="wire3" /><path
         style="fill:#000000;fill-opacity:0;stroke:#0000ff;stroke-width:2;stroke-linecap:square;stroke-opacity:1;paint-order:normal"
         d="M 43,42 V 34"
         id="path9-3"
         inkscape:label="wire4" /><circle
         style="fill:#000000;fill-opacity:0;stroke:#0000ff;stroke-width:2;stroke-linecap:square;stroke-opacity:1;paint-order:normal"
         id="path10-2"
         cx="31"
         cy="38"
         r="3"
         inkscape:label="circle1" /><path
         style="fill:#000000;fill-opacity:0;stroke:#0000ff;stroke-width:2;stroke-linecap:square;stroke-opacity:1;paint-order:normal"
         d="m 31,41 v 5"
         id="path11-0"
         sodipodi:nodetypes="cc"
         inkscape:label="wire5" /><circle
         style="fill:#000000;fill-opacity:0;stroke:#0000ff;stroke-width:2;stroke-linecap:square;stroke-opacity:1;paint-order:normal"
         id="path12-2"
         cx="93"
         cy="38"
         r="3"
         inkscape:label="circle2" /><path
         style="fill:#000000;fill-opacity:0;stroke:#0000ff;stroke-width:2;stroke-linecap:square;stroke-opacity:1;paint-order:normal"
         d="M 69,38 H 90"
         id="path13-6"
         sodipodi:nodetypes="cc"
         inkscape:label="wire6" /><path
         style="display:inline;fill:#000000;fill-opacity:0;stroke:#0000ff;stroke-width:2;stroke-linecap:square;stroke-opacity:1;paint-order:normal"
         d="M 99,38 V 32"
         id="path17-1"
         inkscape:label="wire7" /><path
         style="display:inline;fill:#000000;fill-opacity:0;stroke:#0000ff;stroke-width:2;stroke-linecap:square;stroke-dasharray:none;stroke-opacity:1;paint-order:normal"
         d="m 96,38 h 10.07143"
         id="path16-9"
         sodipodi:nodetypes="cc"
         inkscape:label="wire8" /><path
         style="display:inline;fill:#000000;fill-opacity:0;stroke:#0000ff;stroke-width:2;stroke-linecap:square;stroke-opacity:1;paint-order:normal"
         d="m 49,38 h 20 v 6 h 24 v -3"
         id="path15-3"
         sodipodi:nodetypes="ccccc"
         inkscape:label="wire9" /><path
         style="fill:#000000;fill-opacity:0;stroke:#0000ff;stroke-width:2;stroke-linecap:square;stroke-opacity:1;paint-order:normal"
         d="m 49,34 v 8"
         id="path14-1"
         inkscape:label="wire10" /></g><path
       style="display:inline;fill:#000000;fill-opacity:0;stroke:#666666;stroke-width:2;stroke-linejoin:miter;stroke-opacity:1;paint-order:normal"
       d="M 11,30 9,32 25,48 H 96.999996 L 113,32 111,30 Z"
       id="path4-5-8"
       sodipodi:nodetypes="ccccccc"
       inkscape:label="panel_border" /></g><g
     inkscape:label="frame 1"
     inkscape:groupmode="layer"
     id="layer1-5"
     style="display:inline;paint-order:normal"><path
       style="display:inline;fill:#707070;fill-opacity:1;stroke:none;stroke-width:2;stroke-linejoin:round;paint-order:normal"
       d="M 24,3 2,25 v 10 l 20,20 h 78 L 142,13 V 3 Z"
       id="path2"
       inkscape:label="body" /><path
       style="display:inline;fill:#666666;fill-opacity:1;stroke:none;stroke-width:2;stroke-linejoin:miter;stroke-opacity:0;paint-order:normal"
       d="M 4,24 120,24.063728 140,4 H 24 Z"
       id="path5"
       inkscape:label="inside" /><g
       inkscape:groupmode="layer"
       id="layer1"
       inkscape:label="fan"
       style="display:inline;paint-order:normal"><ellipse
         style="display:inline;fill:#efefef;fill-opacity:1;stroke:none;stroke-width:2.18092;stroke-linecap:round;stroke-opacity:0;paint-order:normal"
         id="path18"
         cx="69"
         cy="17"
         rx="45"
         ry="12" /><path
         id="path18-0"
         style="display:inline;fill:#e1e1e1;fill-opacity:1;stroke:none;stroke-width:2.18092;stroke-linecap:round;stroke-opacity:0;paint-order:normal"
         d="M 46.806641,6.5820312 C 37.732856,7.9513564 30.723652,10.11839 26.976562,12.712891 l 46.511719,16.214843 4.201172,-0.175781 z"
         sodipodi:nodetypes="ccccc" /><path
         id="path18-60"
         style="display:inline;fill:#b4b4b4;fill-opacity:1;stroke:none;stroke-width:2.18092;stroke-linecap:round;stroke-opacity:0;paint-order:normal"
         d="M 44.066406,7.0234375 A 45,12 0 0 0 28.820312,11.621094 L 74,28 Z" /><path
         id="path18-0-2"
         style="display:inline;fill:#ffffff;fill-opacity:1;stroke:none;stroke-width:2.18092;stroke-linecap:round;stroke-opacity:0;paint-order:normal"
         d="M 97.525391,7.7207031 68,25 113.81836,17.798828 A 45,12 0 0 0 114,17 45,12 0 0 0 97.525391,7.7207031 Z" /></g><path
       id="path1"
       style="display:inline;fill:#c9c9c9;fill-opacity:1;stroke:none;stroke-width:2;stroke-linejoin:round;paint-order:normal"
       inkscape:label="grate"
       d="M 24,3 2,25 H 120 L 142,3 Z m 7,2 h 6 L 19,23 h -6 z m 12,0 h 6 L 31,23 h -6 z m 12,0 h 6 L 43,23 h -6 z m 12,0 h 6 L 55,23 h -6 z m 12,0 h 6 L 67,23 h -6 z m 12,0 h 6 L 79,23 h -6 z m 12,0 h 6 L 91,23 h -6 z m 12,0 h 6 l -18,18 h -6 z m 12,0 h 6 l -18,18 h -6 z" /><path
       style="display:inline;fill:#a0a0a4;fill-opacity:1;stroke:none;stroke-width:2;stroke-linejoin:round;paint-order:normal"
       d="M 2,32.1716 22.8284,53 H 99.1716 L 120,32.1716 V 25 H 2"
       id="path3"
       sodipodi:nodetypes="cccccc"
       inkscape:label="front" /><path
       style="display:inline;fill:#3366cc;fill-opacity:1;stroke:#000000;stroke-width:2;stroke-linejoin:miter;stroke-opacity:0;paint-order:normal"
       d="m 11,30 -2,2 16,16 h 72 l 16,-16 -2,-2 z"
       id="path4"
       sodipodi:nodetypes="ccccccc"
       inkscape:label="panel_screen" /><g
       inkscape:groupmode="layer"
       id="layer2"
       inkscape:label="wires"
       style="display:inline;stroke:#0000ff;stroke-opacity:1;paint-order:normal"><path
         style="display:inline;fill:#000000;fill-opacity:0;stroke:#0000ff;stroke-width:2;stroke-linecap:square;stroke-opacity:1;paint-order:normal"
         d="m 21,32 v 6 h 7"
         id="path6"
         sodipodi:nodetypes="ccc"
         inkscape:label="wire1" /><path
         style="fill:#000000;fill-opacity:0;stroke:#0000ff;stroke-width:2;stroke-linecap:square;stroke-opacity:1;paint-order:normal"
         d="m 31,32 v 3"
         id="path7"
         sodipodi:nodetypes="cc"
         inkscape:label="wire2" /><path
         style="fill:#000000;fill-opacity:0;stroke:#0000ff;stroke-width:2;stroke-linecap:square;stroke-opacity:1;paint-order:normal"
         d="m 34,38 h 9"
         id="path8"
         sodipodi:nodetypes="cc"
         inkscape:label="wire3" /><path
         style="fill:#000000;fill-opacity:0;stroke:#0000ff;stroke-width:2;stroke-linecap:square;stroke-opacity:1;paint-order:normal"
         d="M 43,42 V 34"
         id="path9"
         inkscape:label="wire4" /><circle
         style="fill:#000000;fill-opacity:0;stroke:#0000ff;stroke-width:2;stroke-linecap:square;stroke-opacity:1;paint-order:normal"
         id="path10"
         cx="31"
         cy="38"
         r="3"
         inkscape:label="circle1" /><path
         style="fill:#000000;fill-opacity:0;stroke:#0000ff;stroke-width:2;stroke-linecap:square;stroke-opacity:1;paint-order:normal"
         d="m 31,41 v 5"
         id="path11"
         sodipodi:nodetypes="cc"
         inkscape:label="wire5" /><circle
         style="fill:#000000;fill-opacity:0;stroke:#0000ff;stroke-width:2;stroke-linecap:square;stroke-opacity:1;paint-order:normal"
         id="path12"
         cx="93"
         cy="38"
         r="3"
         inkscape:label="circle2" /><path
         style="fill:#000000;fill-opacity:0;stroke:#0000ff;stroke-width:2;stroke-linecap:square;stroke-opacity:1;paint-order:normal"
         d="M 69,38 H 90"
         id="path13"
         sodipodi:nodetypes="cc"
         inkscape:label="wire6" /><path
         style="display:inline;fill:#000000;fill-opacity:0;stroke:#0000ff;stroke-width:2;stroke-linecap:square;stroke-opacity:1;paint-order:normal"
         d="M 99,38 V 32"
         id="path17"
         inkscape:label="wire7" /><path
         style="display:inline;fill:#000000;fill-opacity:0;stroke:#0000ff;stroke-width:2;stroke-linecap:square;stroke-dasharray:none;stroke-opacity:1;paint-order:normal"
         d="m 96,38 h 10.07143"
         id="path16"
         sodipodi:nodetypes="cc"
         inkscape:label="wire8" /><path
         style="display:inline;fill:#000000;fill-opacity:0;stroke:#0000ff;stroke-width:2;stroke-linecap:square;stroke-opacity:1;paint-order:normal"
         d="m 49,38 h 20 v 6 h 24 v -3"
         id="path15"
         sodipodi:nodetypes="ccccc"
         inkscape:label="wire9" /><path
         style="fill:#000000;fill-opacity:0;stroke:#0000ff;stroke-width:2;stroke-linecap:square;stroke-opacity:1;paint-order:normal"
         d="m 49,34 v 8"
         id="path14"
         inkscape:label="wire10" /></g><path
       style="display:inline;fill:#000000;fill-opacity:0;stroke:#666666;stroke-width:2;stroke-linejoin:miter;stroke-opacity:1;paint-order:normal"
       d="M 11,30 9,32 25,48 H 96.999996 L 113,32 111,30 Z"
       id="path4-5"
       sodipodi:nodetypes="ccccccc"
       inkscape:label="panel_border" /></g></svg>

<?xml version="1.0" encoding="UTF-8"?>
<!-- Created with Inkscape (http://www.inkscape.org/) -->
<svg width="142" height="110" version="1.1" viewBox="0 0 142 110" xml:space="preserve" xmlns="http://www.w3.org/2000/svg"><g transform="translate(0,55)" style="paint-order:normal"><path d="m24 3-22 22v10l20 20h78l42-42v-10z" fill="#707070" style="paint-order:normal"/><path d="M 4,24 120,24.063728 140,4 H 24 Z" fill="#666" style="paint-order:normal"/><g style="paint-order:normal"><ellipse cx="69" cy="17" rx="45" ry="12" fill="#efefef" style="paint-order:normal"/><path d="m42.73 7.2715a45 12 0 0 0-18.111 7.8594l48.865 13.797h0.001953a45 12 0 0 0 0.048828-0.001953l4.1543-0.17383-34.959-21.48z" fill="#e1e1e1" style="paint-order:normal"/><path d="m40.285 7.7832a45 12 0 0 0-14.574 6l48.289 14.217-33.715-20.217z" fill="#b4b4b4" style="paint-order:normal"/><path d="m95.092 7.2266-27.092 17.773 45.842-8.998a45 12 0 0 0-18.75-8.7754z" fill="#fff" style="paint-order:normal"/></g><g><path d="m24 3-22 22h118l22-22zm7 2h6l-18 18h-6zm12 0h6l-18 18h-6zm12 0h6l-18 18h-6zm12 0h6l-18 18h-6zm12 0h6l-18 18h-6zm12 0h6l-18 18h-6zm12 0h6l-18 18h-6zm12 0h6l-18 18h-6zm12 0h6l-18 18h-6z" fill="#c9c9c9" style="paint-order:normal"/><path d="M 2,32.1716 22.8284,53 H 99.1716 L 120,32.1716 V 25 H 2" fill="#a0a0a4" style="paint-order:normal"/><path d="m11 30-2 2 16 16h72l16-16-2-2z" fill="#36c" stroke-opacity="0" style="paint-order:normal"/></g><g fill-opacity="0" stroke="#00f" stroke-linecap="square" stroke-width="2" style="paint-order:normal"><path d="m21 32v6h7" style="paint-order:normal"/><path d="m31 32v3" style="paint-order:normal"/><path d="m34 38h9" style="paint-order:normal"/><path d="m43 42v-8" style="paint-order:normal"/><circle cx="31" cy="38" r="3" style="paint-order:normal"/><path d="m31 41v5" style="paint-order:normal"/><circle cx="93" cy="38" r="3" style="paint-order:normal"/><path d="m69 38h21" style="paint-order:normal"/><path d="m99 38v-6" style="paint-order:normal"/><path d="m96 38h10.071" style="paint-order:normal"/><path d="m49 38h20v6h24v-3" style="paint-order:normal"/><path d="m49 34v8" style="paint-order:normal"/></g><path d="m11 30-2 2 16 16h72l16-16-2-2z" fill-opacity="0" stroke="#666" stroke-width="2" style="paint-order:normal"/></g><g style="paint-order:normal"><path d="m24 3-22 22v10l20 20h78l42-42v-10z" fill="#707070" style="paint-order:normal"/><path d="M 4,24 120,24.063728 140,4 H 24 Z" fill="#666" style="paint-order:normal"/><g style="paint-order:normal"><ellipse cx="69" cy="17" rx="45" ry="12" fill="#efefef" style="paint-order:normal"/><path d="m46.807 6.582c-9.0738 1.3693-16.083 3.5364-19.83 6.1309l46.512 16.215 4.2012-0.17578z" fill="#e1e1e1" style="paint-order:normal"/><path d="m44.066 7.0234a45 12 0 0 0-15.246 4.5977l45.18 16.379z" fill="#b4b4b4" style="paint-order:normal"/><path d="m97.525 7.7207-29.525 17.279 45.818-7.2012a45 12 0 0 0 0.18164-0.79883 45 12 0 0 0-16.475-9.2793z" fill="#fff" style="paint-order:normal"/></g><g><path d="m24 3-22 22h118l22-22zm7 2h6l-18 18h-6zm12 0h6l-18 18h-6zm12 0h6l-18 18h-6zm12 0h6l-18 18h-6zm12 0h6l-18 18h-6zm12 0h6l-18 18h-6zm12 0h6l-18 18h-6zm12 0h6l-18 18h-6zm12 0h6l-18 18h-6z" fill="#c9c9c9" style="paint-order:normal"/><path d="M 2,32.1716 22.8284,53 H 99.1716 L 120,32.1716 V 25 H 2" fill="#a0a0a4" style="paint-order:normal"/><path d="m11 30-2 2 16 16h72l16-16-2-2z" fill="#36c" stroke-opacity="0" style="paint-order:normal"/></g><g fill-opacity="0" stroke="#00f" stroke-linecap="square" stroke-width="2" style="paint-order:normal"><path d="m21 32v6h7" style="paint-order:normal"/><path d="m31 32v3" style="paint-order:normal"/><path d="m34 38h9" style="paint-order:normal"/><path d="m43 42v-8" style="paint-order:normal"/><circle cx="31" cy="38" r="3" style="paint-order:normal"/><path d="m31 41v5" style="paint-order:normal"/><circle cx="93" cy="38" r="3" style="paint-order:normal"/><path d="m69 38h21" style="paint-order:normal"/><path d="m99 38v-6" style="paint-order:normal"/><path d="m96 38h10.071" style="paint-order:normal"/><path d="m49 38h20v6h24v-3" style="paint-order:normal"/><path d="m49 34v8" style="paint-order:normal"/></g><path d="m11 30-2 2 16 16h72l16-16-2-2z" fill-opacity="0" stroke="#666" stroke-width="2" style="paint-order:normal"/></g></svg>
